!! 00000] TT[WS
!!!OTL: Hua shanmianr
!!!ARE: Asia, China, Shanxi Wutai
!! Ethnic Group: Han
!! WII, 201
!!!SCT: J0701
!!!YEM: Copyright 1995, estate of Helmut Schaffrath.
**kern
*ICvox
*Ivox
*M2/4
*k[b-e-a-]
*E-:
{8.b-
16cc
8b-
8g
=1
8b-
4f
8b-
=2
8b-
8b-
8.g
16f
=3
4.e-
8e-}
=4
{8e-
8f
8f
8cc
=5
8b-
8g
4f
=6
8b-
8b-
8e-
8c
=7
2B-}
=8
{8e-
8c
[4e-
=9
8e-]
4f
8b-
=10
4b-
8c
8e-
=11
8f
8c
4B-}
=12
{8b-
8cc
8b-
8g
=13
8b-
8cc
4b-
=14
8.a-
16g
8f
8e-
=15
8f
8g
8b-
8b-}
=16
{4r
4gg
=17
8r
8g
8g
8g
=18
8g
8cc
8b-
8g
=19
8g
8f
8b-
8b-
=20
8e-
8c
[4B-
=21
4B-]
4r}
==
!!!AGN: Xiaodiao, Shidiao. Fengsu
!!!ONB: ESAC (Essen Associative Code) Database: CHINA
!!!AMT: simple duple
!!!AIN: vox
!!!EED: Helmut Schaffrath
!!!EEV: 1.0
*-
!!!ONB: Tied note syntax fixed by Craig Sapp, 2004/05/03/
